Newaita-dark/actions/22/xml-attribute-delete.svg

<svg height="22" viewBox="0 0 22 22" width="22" xmlns="http://www.w3.org/2000/svg"><g fill="#e0e0e0"><path d="m4.546875 9.722656v9.550782c0 .503906.40625.910156.910156.910156h4.09375v-1.820313h-2.730469c-.25 0-.453124-.203125-.453124-.453125v-8.1875zm10.917969 0v2.730469h1.816406v-2.730469zm0 0"/><path d="m10.914062 1.996094c-.742187 0-1.285156.332031-1.929687.761718-.644531.429688-1.324219 1.007813-1.964844 1.679688-1.28125 1.339844-2.46875 3.011719-2.46875 4.832031v.90625c-.003906.328125.167969.632813.449219.796875.28125.164063.632812.164063.914062 0 .28125-.164062.453126-.46875.449219-.796875v-.90625c0-.914062.859375-2.421875 1.964844-3.582031.554687-.582031 1.152344-1.085938 1.660156-1.421875.507813-.339844.988281-.460937.925781-.460937-.058593 0 .421876.121093.925782.460937.507812.335937 1.105468.839844 1.660156 1.421875 1.109375 1.160156 1.96875 2.667969 1.96875 3.582031v.90625c-.007812.328125.164062.632813.449219.796875.28125.164063.628906.164063.910156 0 .28125-.164062.453125-.46875.449219-.796875v-.90625c0-1.820312-1.1875-3.492187-2.46875-4.832031-.636719-.671875-1.320313-1.25-1.964844-1.679688-.640625-.429687-1.183594-.761718-1.929688-.761718zm0 0"/><path d="m10.914062 6.539062c.753907 0 1.367188.609376 1.367188 1.363282s-.613281 1.367187-1.367188 1.367187c-.753906 0-1.363281-.613281-1.363281-1.367187s.609375-1.363282 1.363281-1.363282zm0 0"/></g><path d="m17.148438 19.40625-.644532.644531c-.175781.175781-.464844.175781-.640625 0l-4.503906-4.503906c-.175781-.175781-.175781-.464844 0-.644531l.644531-.640625c.175782-.179688.464844-.179688.644532 0l4.5 4.5c.179687.179687.179687.46875 0 .644531zm0 0" fill="#f44336"/><path d="m12.003906 20.050781-.644531-.644531c-.175781-.175781-.175781-.464844 0-.644531l4.503906-4.5c.175781-.179688.464844-.179688.640625 0l.644532.640625c.179687.179687.179687.46875 0 .644531l-4.5 4.503906c-.179688.175781-.46875.175781-.644532 0zm0 0" fill="#f44336"/></svg>

<svg xmlns="http://www.w3.org/2000/svg" xmlns:xlink="http://www.w3.org/1999/xlink" width="22px" height="22px" viewBox="0 0 22 22" version="1.1">
<g id="surface1">
     <defs>
  <style id="current-color-scheme" type="text/css">
   .ColorScheme-Text { color:#eeeeee; } .ColorScheme-Highlight { color:#424242; }
  </style>
 </defs>
<path style="fill:currentColor" class="ColorScheme-Text" d="M 4.546875 9.722656 L 4.546875 19.273438 C 4.546875 19.777344 4.953125 20.183594 5.457031 20.183594 L 9.550781 20.183594 L 9.550781 18.363281 L 6.820312 18.363281 C 6.570312 18.363281 6.367188 18.160156 6.367188 17.910156 L 6.367188 9.722656 Z M 15.464844 9.722656 L 15.464844 12.453125 L 17.28125 12.453125 L 17.28125 9.722656 Z M 15.464844 9.722656 "/>
     <defs>
  <style id="current-color-scheme" type="text/css">
   .ColorScheme-Text { color:#eeeeee; } .ColorScheme-Highlight { color:#424242; }
  </style>
 </defs>
<path style="fill:currentColor" class="ColorScheme-Text" d="M 10.914062 1.996094 C 10.171875 1.996094 9.628906 2.328125 8.984375 2.757812 C 8.339844 3.1875 7.660156 3.765625 7.019531 4.4375 C 5.738281 5.777344 4.550781 7.449219 4.550781 9.269531 L 4.550781 10.175781 C 4.546875 10.503906 4.71875 10.808594 5 10.972656 C 5.28125 11.136719 5.632812 11.136719 5.914062 10.972656 C 6.195312 10.808594 6.367188 10.503906 6.363281 10.175781 L 6.363281 9.269531 C 6.363281 8.355469 7.222656 6.847656 8.328125 5.6875 C 8.882812 5.105469 9.480469 4.601562 9.988281 4.265625 C 10.496094 3.925781 10.976562 3.804688 10.914062 3.804688 C 10.855469 3.804688 11.335938 3.925781 11.839844 4.265625 C 12.347656 4.601562 12.945312 5.105469 13.5 5.6875 C 14.609375 6.847656 15.46875 8.355469 15.46875 9.269531 L 15.46875 10.175781 C 15.460938 10.503906 15.632812 10.808594 15.917969 10.972656 C 16.199219 11.136719 16.546875 11.136719 16.828125 10.972656 C 17.109375 10.808594 17.28125 10.503906 17.277344 10.175781 L 17.277344 9.269531 C 17.277344 7.449219 16.089844 5.777344 14.808594 4.4375 C 14.171875 3.765625 13.488281 3.1875 12.84375 2.757812 C 12.203125 2.328125 11.660156 1.996094 10.914062 1.996094 Z M 10.914062 1.996094 "/>
     <defs>
  <style id="current-color-scheme" type="text/css">
   .ColorScheme-Text { color:#eeeeee; } .ColorScheme-Highlight { color:#424242; }
  </style>
 </defs>
<path style="fill:currentColor" class="ColorScheme-Text" d="M 10.914062 6.539062 C 11.667969 6.539062 12.28125 7.148438 12.28125 7.902344 C 12.28125 8.65625 11.667969 9.269531 10.914062 9.269531 C 10.160156 9.269531 9.550781 8.65625 9.550781 7.902344 C 9.550781 7.148438 10.160156 6.539062 10.914062 6.539062 Z M 10.914062 6.539062 "/>
<path style=" stroke:none;fill-rule:nonzero;fill:rgb(95.686275%,26.274511%,21.176471%);fill-opacity:1;" d="M 17.148438 19.40625 L 16.503906 20.050781 C 16.328125 20.226562 16.039062 20.226562 15.863281 20.050781 L 11.359375 15.546875 C 11.183594 15.371094 11.183594 15.082031 11.359375 14.902344 L 12.003906 14.261719 C 12.179688 14.082031 12.46875 14.082031 12.648438 14.261719 L 17.148438 18.761719 C 17.328125 18.941406 17.328125 19.230469 17.148438 19.40625 Z M 17.148438 19.40625 "/>
<path style=" stroke:none;fill-rule:nonzero;fill:rgb(95.686275%,26.274511%,21.176471%);fill-opacity:1;" d="M 12.003906 20.050781 L 11.359375 19.40625 C 11.183594 19.230469 11.183594 18.941406 11.359375 18.761719 L 15.863281 14.261719 C 16.039062 14.082031 16.328125 14.082031 16.503906 14.261719 L 17.148438 14.902344 C 17.328125 15.082031 17.328125 15.371094 17.148438 15.546875 L 12.648438 20.050781 C 12.46875 20.226562 12.179688 20.226562 12.003906 20.050781 Z M 12.003906 20.050781 "/>
</g>
</svg>
